X:1
T:While Shepherds Watched Their Flocks By Night
T:While Shepherds Watched Their Flocks By Night
T:Richard Allison
C:Christopher Tye (Winchester Old)/Richard Allison
%%score [ 1 2 3 4 ]
L:1/8
Q:1/4=140
M:2/2
K:Bb
V:1 treble nm="Soprano" snm="S."
V:2 treble nm="Alto" snm="A."
V:3 treble-8 nm="Tenor" snm="T."
V:4 bass nm="Bass" snm="B."
V:1
 F8 | A6 A2 | G4 F4 | B4 B4 | A8 | G8 | A4 c4 | c4 =B4 | c8 | A8 | d6 c2 | B4 A4 | G4 F4 | =E8 | %14
w: While|shep- herds|watched their|flocks by|night,|All|seat- ed|on the|ground,|The|An- gel|of the|Lord came|down,|
 A8 | G4 F4 | F4 =E4 | F8 |] %18
w: And|glo- ry|shone a-|round.|
V:2
 C8 | F6 F2 | =E4 F4 | F4 F4 | F8 | =E8 | F4 (=E2 F2) | G6 F2 | =E8 | F8 | F6 A2 | G4 (F2 =E2) | %12
w: While|shep- herds|watched their|flocks by|night,|All|seat- ed _|on the|ground,|The|An- gel|of the *|
 D4 B,4 | C8 | C8 | C4 (A,2 =B,2) | C6 B,2 | A,8 |] %18
w: Lord came|down,|And|glo- ry *|shone a-|round.|
V:3
 A8 | c6 c2 | c4 A4 | d4 d4 | c8 | c8 | c4 c4 | d4 d4 | c8 | c8 | B4 f4 | d4 c4 | B6 F2 | G8 | F8 | %15
w: While|shep- herds|watched their|flocks by|night,|All|seat- ed|on the|ground,|The|An- gel|of the|Lord came|down,|And|
 =E4 F4 | G4 G4 | F8 |] %18
w: glo- ry|shone a-|round.|
V:4
 F,8 | F,6 F,2 | C,4 D,4 | B,,4 B,,4 | F,8 | C,8 | F,4 A,4 | G,4 G,4 | C,8 | %9
w: While|shep- herds|watched their|flocks by|night,|All|seat- ed|on the|ground,|
"_2. Fear not, said he, for mighty dread had seized their troubled mind, \nGlad tidings of great joy I bring to you and all mankind\n\n3. To you, in David's town, this day is born of David's line\nthe Saviour, who is Christ the Lord, and this shall be the sign.\n\n4. The heav'nly babe you there shall find to human view displayed,\nAll meanly wrapped in swathing bands and in a manger laid.\n\n5. Thus spoke the seraph, and forthqith appeared a shining throng\nof angels, praising God, who thus addressed their joyful song.\n\n6. All glory be to God on high, and to the earth be peace,\nGood will henceforth from heav'n to men begin and never cease." F,8 | %10
w: The|
 B,,6 F,,2 | G,,4 A,,4 | B,,4 D,4 | C,8 | F,,8 | C,4 D,4 | C,4 C,4 | F,,8 |] %18
w: An- gel|of the|Lord came|down,|And|glo- ry|shone a-|round.|

